X:1
T:Morir my fault
T:Morir my fault
T:Jacobus Clemens non Papa
C:Jacobus Clemens non Papa
%%score [ 1 [ 2 3 ] 4 ]
L:1/8
Q:1/4=80
M:2/2
K:F
V:1 treble nm="Superius" snm="S"
V:2 treble-8 nm="Tenor 1" snm="T 1"
V:3 treble-8 nm="Tenor 2" snm="T 2"
V:4 bass nm="Bassus" snm="B"
V:1
 F8 | G4 G4 | A6 c2 | B6 A2 | G8 | G4 c2 cc | c3 B A2 G2 | F4 B2 BB | B6 A2 | G2 F2 E4 | %10
w: Mo-|rir my|fault, cest|cho- se|cle-|re, O du- re|mort, que faic- tes|vous, O du- re|mort, que|faic- tes vous?|
 z2 F2 G2 G2 | A6 c2 | B2 A2 G4 | G4 z2 G2 | A2 c2 B2 A2 | G2 F2 EFGE | FG A2 G2 F2- | F2 E2 F4- | %18
w: Souf- frir si|tost la|mort a- me-|re, la|cho- se me vient|a re- bours, _ _ _|_ _ _ _ _||
 F4 z4 | z4 z2 c2 | c2 c2 B2 AG | A2 A2 G3 A | B2 c4 B2 | c4 z2 F2 | A2 A2 A2 c2 | B2 A2 G4 | %26
w: |je|fi- ne- ray _ _|_ de brief _|_ mes _|jours, na-|vrez m'a- vez, mais|a grant tort,|
 z2 c4 B2 | A2 G2 z2 c2- | c2 B2 A2 G2- | G2 F2 B2 A2- | A2 GF E4 | z2 F2 F2 G2 | A6 c2 | B6 A2 | %34
w: mais a|grant tort, pour|_ vous, ma da-|* me, par a-|* * * mours,|je prens en|gre la|du- re|
 G4 z2 G2 | G2 G2 FGAF | G2 F4 E2 | F8- | F8- | F8 |] %40
w: mort, je|prens en gre _ _ _|la du- re|mort.|_||
V:2
 c8 | e4 d4 | f6 f2 |"^b" f2 g2 f3 e | d2 c2 d4 | e4 e2 ee | f3 d f2 e2 | d4 f2 ff | g2 g2 f3 e | %9
w: Mo-|rir my|fault, cest|cho- se cle- *||re, O du- re|mort, que faic- tes|vous, O du- re|mort, que faic- *|
 d2 d2 c4 | z2 c2 e2 d2 | f6 f2 | f2 f2 d2 e2 | d4 z2 e2 | f2 e2 g2 f2 | _e2 c2 c4 | c2 f2 d2 c2 | %17
w: * tes vous?|Souf- frir si|tost la|mort a- me- *|re, la|cho- se me vient|a re- bours,|la cho- se me|
 d2 c3 BAG | A3 G/F/ G2 G2 | F2 f2 f2 f2 | e2 e2 d2 d2 | c4 z2 g2 | g2 a2 gfed | e4 z2 c2 | %24
w: vient a _ _ _|_ _ _ _ re-|bours, je fi- ne-|ray de brief mes|jours, de-|brief mes jours, _ _ _|_ na-|
 f2 f2 f2 g2 |"^b" g2 f2 e4 |"^b" f4 e2 d2 | c2 e2 d2 c2 | g3 f ed e2- | e2 dc d2 c2- | %30
w: vrez m'a- vez, mais|a grant tort,|mais a grant|tort, pour vous, ma|da- me, par _ a-||
"^-natural" c2 B2 c4 | z2 c2 d2 d2 | f6 f2 | f8 | d8 | e4 A2 d2- | d2 d2 c4 | z2 A2 d2 d2 | c8- | %39
w: * * mours,|je prens en|gre la|du-|re|mort, la du-|* re mort,|la du- re|mort.|
 c8 |] %40
w: _|
V:3
 A8 | c6 B2 | c2 A2 d2 c2 | d2 _e2 d2 c2 |"^-natural" BG c4 B2 | c4 z2 G2 | A3 B c2 c2 | A2 A2 d4 | %8
w: Mo-|rir my|fault, cest cho- se|cle- * * *||re, O|du- re mort, que|faic- tes vous,|
 _e2 ee d2 c2 | B2 A2 G4 | z2 A2 c2 B2 | c6 A2 | d2 c2 B2 c2 | G4 z2 c2 | c2 c2 d3 c | %15
w: O du- re mort, que|faic- tes vous?|Souf- frir si|tost la|mort a- me- *|re, la|cho- se me vient|
 B2 A2 G2 G2 | A2 c2 B2 A2 | G2 G2 F4 | z2 c2 c2 c2 | B2 AG A2 A2 | G4 z2 f2 | f2 f2 e2 e2 | %22
w: a re- bours, la|cho- se me vient|a re- bours,|je fi- ne-|ray de _ brief mes|jours, je|fi- ne- ray de|
 d6 d2 | c2 G2 A2 A2 | c6 _e2 |"^b""^b" e2 c2 c2 e2 | d2 c2 g4 | z4 f4 | e2 d2 c2 c2 | B2 A2 F4- | %30
w: brief mes|jours, na- vrez m'a-|vez, mais|a grant tort, mais|a grant tort,|pour|vous, ma da- me,|par a- *|
 F4 G4 | z2 A2 A2 B2 | c6 A2 | d6 c2 |"^-natural" BG c4 B2 | c4 z2 A2 | B4 G4 | F2 F2 B2 B2- | %38
w: * mours,|je prens en|gre la|du- *|* * * re|mort, la|du- re|mort, la du- re|
 B2 AG A4- | A8 |] %40
w: _ _ _ mort.|_|
V:4
 F,8 | C,4 G,4 | F,6 F,2 | B,2 _E,2 F,4 | G,8 | C,8 | F,2 F,G, F,2 C,2 | D,2 D,2 B,,4 | %8
w: Mo-|rir my|fault, cest|cho- se cle-||re,|O du- re mort, que|faic- tes vous,|
 _E,2 E,E, B,,2 F,2 | B,,2 B,,2 C,4 | z2 F,2 C,2 G,2 | F,6 F,2 | B,2 F,2 G,C, C2- | %13
w: O du- re mort, que|faic- tes vous?|Souf- frir si|tost la|mort a- me- * *|
"^-natural" C2 B,2 C2 C,2 | F,2 A,2 G,2 D,2 | _E,2 F,2 C,2 C,2 | F,2 F,,2 G,,2 A,,2 | %17
w: * * re, la|cho- se me vient|a re- bours, la|cho- se me vient|
 B,,2 C,2 F,,2 F,2 |"^-natural" F,2 F,2 E,2 D,C, | D,2 D,2 F,3 E, | C,D,E,F, G,2 D,E, | %21
w: a re- bours, je|fi- ne- ray de _|brief mes jours, _|_ _ _ _ _ _ _|
 F,G,A,B, C2 C,2 | G,2 F,2 G,4 | z2 C,2 F,2 F,2 | F,6 C,2 | _E,2 F,2 C,2 C2 | B,2 A,2 G,4 | %27
w: ||na- vrez m'a-|vez, mais|a grant tort, mais|a grant tort,|
 z2 C2 B,2 A,2 | G,2 G,2 C,3 D, | E,2 F,2 D,4- | D,4 C,4 | z2 F,2 D,2 G,2 | F,6 F,2 | B,4 F,4 | %34
w: pour vous, ma|da- me, par _|_ a- *|* mours,|je prens en|gre la|du- re|
 G,8 | z2 C,2 D,4 | B,,4 C,2 C,2 | D,4 B,,4 | F,8- | F,8 |] %40
w: mort,|la du-|re mort, la|du- re|mort.|_|

